!!!COM: Palestrina, Giovanni Perluigi da
!!!OPR: In te Domine speravi (1593-4)
!!!OTL: Kyrie
**kern	**kern	**kern	**kern
*Ibass	*Itenor	*Icalto	*Icant
!Bassus	!Tenor	!Altus	!Cantus
*clefF4	*clefGv2	*clefG2	*clefG2
*k[]	*k[]	*k[]	*k[]
*D:dor	*D:dor	*D:dor	*D:dor
*M4/2	*M4/2	*M4/2	*M4/2
=1	=1	=1	=1
0r	0r	1r	1.a
.	.	[1d	.
.	.	.	2a
=2	=2	=2	=2
0r	0r	2d]	2dd
.	.	2d	2dd
.	.	2a	2.cc
.	.	2a	.
.	.	.	4dd
=3	=3	=3	=3
0r	0r	2.g	4ee
.	.	.	4ff
.	.	.	2.gg
.	.	4a	.
.	.	2b	.
.	.	.	4ff
.	.	[2cc	4ee
.	.	.	4dd
=4	=4	=4	=4
0r	1r	4cc]	2ee
.	.	4b	.
.	.	4a	2.ff
.	.	4g	.
.	[1A	2.a	.
.	.	.	4ee
.	.	.	[2ee
.	.	4g	.
=5	=5	=5	=5
1.D	2A]	0f	2ee]
.	2A	.	4dd
.	.	.	4cc
.	2d	.	1dd
2D	2d	.	.
=6	=6	=6	=6
2A	2.c	1e	2.ee
2A	.	.	.
.	4d	.	8dd
.	.	.	8cc
2.G	4e	1r	2.b
.	4f	.	.
.	[2g	.	.
4A	.	.	4cc
=7	=7	=7	=7
2B	4g]	1r	2dd
.	4f	.	.
2.c	4e	.	2g
.	4d	.	.
.	4e	2r	1cc
4B	4d	.	.
4A	4c	[2e	.
4G	4B	.	.
=8	=8	=8	=8
1A	4c	2e]	1.cc
.	4d	.	.
.	1e	2e	.
1F	.	1a	.
.	2d	.	4b
.	.	.	4a
=9	=9	=9	=9
1E	1e	2.g	2cc
.	.	.	2b
.	.	4a	.
1r	2r	2b	2dd
.	2c	[2cc	[2ee
=10	=10	=10	=10
0r	2e	4cc]	4ee]
.	.	4b	4dd
.	1f	4a	4cc
.	.	4g	4b
.	.	2a	2cc
.	2d	[2b	[2dd
=11	=11	=11	=11
1r	1f	4b]	4dd]
.	.	4a	4cc
.	.	1a	4cc
.	.	.	8b
.	.	.	8a
[1E	1e	.	[1b
.	.	4g#	.
.	.	4f#	.
=12	=12	=12	=12
2E]	2r	1g#	1b]
2E	1e	.	.
1A	.	1a	[1cc
.	2e	.	.
=13	=13	=13	=13
2.F	2.a	2r	0cc]
.	.	1a	.
4G	4g	.	.
4A	2f	.	.
4B	.	.	.
4c	2e	2a	.
4A	.	.	.
=14	=14	=14	=14
4B	2.d	2g	1r
4c	.	.	.
1d	.	4f	.
.	4e	4e	.
.	2f	2d	[1a
2c#	2e	2e	.
=15	=15	=15	=15
1d	2d	4f	2a]
.	.	4g	.
.	2f	1a	2a
1B	1d	.	1dd
.	.	2g#	.
=16	=16	=16	=16
2.A	2e	1a	2.cc
.	2f	.	.
4B	.	.	4dd
2c	2e	2r	2ee
[2d	2d	2a	[2ff
=17	=17	=17	=17
4d]	2f	2a	4ff]
4c	.	.	4ee
4B-	2.g	2.b-	4dd
4A	.	.	4cc
2G	.	.	2dd
.	4f	4a	.
[2c	4e	4g	[2ee
.	4d	4f	.
=18	=18	=18	=18
2c]	2c	1g	2ee]
2B-	2d	.	1dd
1A	1e	1a	.
.	.	.	2cc#
=19	=19	=19	=19
0D	0d	0f#	0dd
=20	=20	=20	=20
0r	0r	1g	1r
.	.	2f	1dd
.	.	2d	.
=21	=21	=21	=21
0r	0r	1f	2cc
.	.	.	2a
.	.	2e	1cc
.	.	[2a	.
=22	=22	=22	=22
0r	1r	4a]	1b
.	.	4g	.
.	.	1g	.
.	1d	.	2.a
.	.	2f	.
.	.	.	4b
=23	=23	=23	=23
0r	2c	2e	4cc
.	.	.	4dd
.	2A	4c	2ee
.	.	4d	.
.	1c	4e	2cc
.	.	4f	.
.	.	[2g	[2ee
=24	=24	=24	=24
0r	1B-	4g]	4ee]
.	.	4f	4dd
.	.	2d	1dd
.	1A	1e	.
.	.	.	2cc#
=25	=25	=25	=25
1G	1r	0d	2dd
.	.	.	2b-
2F	2r	.	[1a
2D	2d	.	.
=26	=26	=26	=26
1F	2c	1r	1a]
.	2A	.	.
1E	2B	1g	1r
.	2c#	.	.
=27	=27	=27	=27
1D	4d	2f	2r
.	4e	.	.
.	4f	2d	2dd
.	4g	.	.
2r	2a	1f	2cc
2F	2a	.	2a
=28	=28	=28	=28
2G	2g	1e	2b
2A	2e	.	2cc#
2D	2.f	1d	2dd
2d	.	.	4a
.	4g	.	4b
=29	=29	=29	=29
2c	1a	2r	4cc
.	.	.	4dd
2A	.	2a	4ee
.	.	.	4cc
2B	2r	2g	2dd
2c	2g	2e	[2ee
=30	=30	=30	=30
2d	2f	2f	4ee]
.	.	.	4dd
2B-	2d	2g	1dd
1A	2e	2.a	.
.	2f	.	[2cc
.	.	8g	.
.	.	8f	.
=31	=31	=31	=31
0r	2g	2e	4cc]
.	.	.	4b
.	2e	1g	4b
.	.	.	8a
.	.	.	8g
.	2d	.	[1a
.	2d	2f	.
=32	=32	=32	=32
1A	2c	2e	1a]
.	2A	2c	.
2G	2B	2d	1r
2E	[2c	2e	.
=33	=33	=33	=33
2F	2c]	1d	1r
2G	2B	.	.
4A	[1c	1c	1a
4B	.	.	.
4c	.	.	.
4d	.	.	.
=34	=34	=34	=34
2e	1c]	2r	2g
2c	.	2g	2e
2d	2r	2f	2f
2B-	2d	2d	2g
=35	=35	=35	=35
1A	2c	2e	4a
.	.	.	4b
.	2A	2a	4cc
.	.	.	4dd
1r	2.c	2g	4ee
.	.	.	4ff
.	.	2e	[2gg
.	4d	.	.
=36	=36	=36	=36
1r	2e	1g	4gg]
.	.	.	4ff
.	2c	.	1ee
2r	1d	1f	.
2d	.	.	2dd
=37	=37	=37	=37
2c	4A	2e	1ee
.	4B	.	.
2A	4c	2.cc	.
.	4d	.	.
1c	1e	.	1cc
.	.	4b	.
.	.	[2a	.
=38	=38	=38	=38
0B-	0d	2a]	0dd
.	.	4g	.
.	.	4f	.
.	.	1g	.
=39	=39	=39	=39
0A	0e	0a	0cc#
=40	=40	=40	=40
1A	2r	0r	0r
.	2a	.	.
2B	2g	.	.
2c#	2e	.	.
=41	=41	=41	=41
1d	2.f	0r	0r
.	4d	.	.
2.c	4e	.	.
.	4f	.	.
.	2g	.	.
4B	.	.	.
=42	=42	=42	=42
2A	2f	1r	0r
2G	2.e	.	.
2.F	.	1a	.
.	4d	.	.
.	[2d	.	.
8E	.	.	.
8D	.	.	.
=43	=43	=43	=43
1E	2d]	2g	0r
.	2c#	2e	.
2D	1d	2.f	.
2d	.	.	.
.	.	4d	.
=44	=44	=44	=44
2c	2r	4e	1r
.	.	4f	.
2B	1d	2g	.
1A	.	2f	1a
.	2c	2e	.
=45	=45	=45	=45
2G	2d	2g	2b
2F	1f	1a	2cc
1B-	.	.	1dd
.	4e	2g	.
.	4d	.	.
=46	=46	=46	=46
[0A	2e	2.a	2.cc
.	4A	.	.
.	4B	8g	4b
.	.	8f	.
.	4c	1e	2a
.	4d	.	.
.	[2e	.	2g
=47	=47	=47	=47
0A]	2e]	0a	2.f
.	1d	.	.
.	.	.	8e
.	.	.	8d
.	.	.	2e
.	2c#	.	[2a
=48	=48	=48	=48
2r	2d	2r	2a]
2d	2B-	2d	2g
2c	1A	2e	1a
2A	.	2f	.
=49	=49	=49	=49
2.B	1G	1g	1dd
4G	.	.	.
4A	2r	2f	1r
4B	.	.	.
2c	2A	2e	.
=50	=50	=50	=50
2B	2B	2d	0r
1A	2c	2c	.
.	1d	1B	.
2G	.	.	.
=51	=51	=51	=51
2F	2r	1A	2r
2D	2d	.	2dd
1A	2e	2r	2cc
.	2f	2c	2a
=52	=52	=52	=52
2G	1g	2d	2.b
2E	.	2e	.
.	.	.	4g
1F	2.f	2A	4a
.	.	.	4b
.	.	2a	2cc
.	4e	.	.
=53	=53	=53	=53
2G	2d	4g	2b
.	.	4f	.
2A	2c	4e	1a
.	.	4d	.
1E	1B	2.e	.
.	.	.	2g#
.	.	4d	.
=54	=54	=54	=54
2F	1A	2c	2.a
2D	.	2f	.
.	.	.	4b
2.A	2r	1e	4cc
.	.	.	4b
.	2A	.	4cc
8G	.	.	4dd
8F	.	.	.
=55	=55	=55	=55
1E	2B	2r	1ee
.	2c#	2g	.
1D	1d	2f	[1a
.	.	2d	.
=56	=56	=56	=56
1A	2.c	2.e	1a]
.	4A	4c	.
2G	2B	4d	1r
.	.	4e	.
[2A	[2c	2f	.
=57	=57	=57	=57
4A]	4c]	2e	1r
4G	4B	.	.
2F	2A	1d	.
1E	1G	.	1gg
.	.	2c#	.
=58	=58	=58	=58
1D	0A	2d	2ff
.	.	2dd	2dd
2r	.	2cc	2.ee
2A	.	2a	.
.	.	.	4cc
=59	=59	=59	=59
2G	2r	2b	4dd
.	.	.	4ee
2F	2a	2.cc	2.ff
1c	2g	.	.
.	.	4b	4ee
.	2e	2cc	[2ee
=60	=60	=60	=60
1d	2.f	0a	4ee]
.	.	.	4dd
.	.	.	1dd
.	4d	.	.
1A	1e	.	.
.	.	.	2cc#
=61	=61	=61	=61
0D	0f#	0a	0dd
==	==	==	==
*-	*-	*-	*-
!!!CDT: 1525/^1526/-1594/2/2
!!!OCY: Italia
!!!AGN: Mass (Parody)
!!!AST: renaissance, vocal
!!!ASW: Motet (?Lhéritier)
!!!PWK: Masses, Book 6
!!!RNB: Cadence finals: A
!!!YOR: Le Opere Complete, v. 21, p. 26
!!!YOO: Rome, Italy: Fratelli Scalera
!!!END: 1992//
!!!EED: John Miller
!!!YEC: Copyright 2000, John Miller
!!!YEN: United States of America
!!!YEM: Rights to all derivative electronic formats reserved.
!!!YEM: Refer to licensing agreement for further details.
!!!YEM: This file must be accompanied by the licensing agreement.
!!!YEM: A copy of the licensing agreement may be found at http://www.music-cog.ohio-state.edu/HumdrumDatabases/Palestrina/license.txt
!!!EMD: converted to Humdrum by Bret Aarden
